X:5042
T: Harangoznak délre
Q: 1/4=128
M:4/4
L:1/4
K: F
B<B AF | G2 g2 | 
gfec | d2 d/z/ z |
fg (3:2:2 af2 | g<d (3:2:2 cf2 |
B/B/B A F | G2 G/z/ z |

